picto/station-assistance.svg

<svg class="color-immutable" width="24" height="24" viewBox="0 0 24 24" fill="none" xmlns="http://www.w3.org/2000/svg"><path d="M-0.000976562 22.5V1.5C-0.000976562 0.675 0.674023 0 1.49902 0H22.499C23.324 0 24 0.675 24 1.5V22.5C24 23.325 23.325 24 22.5 24H1.50002C0.674024 24 -0.000976562 23.325 -0.000976562 22.5Z" fill="#2D327D"/><path d="M18.362 12.1L21 14.738V21H13.109C12.761 21 12.48 20.718 12.48 20.372C12.48 20.357 12.48 20.342 12.481 20.327C12.482 20.271 12.492 20.216 12.512 20.165C12.659 19.765 13.04 19.499 13.465 19.499H13.484H15.675C15.944 19.499 16.164 19.28 16.164 19.012V17.741C16.164 17.542 16.084 17.352 15.943 17.212L11.857 13.125C11.584 12.854 11.584 12.414 11.855 12.143C12.126 11.872 12.567 11.872 12.838 12.143L17.183 16.489L17.422 16.25L13.538 12.366L13.802 12.099C13.915 11.988 14.068 11.924 14.227 11.924C14.387 11.924 14.539 11.987 14.651 12.099L18.125 15.574L18.363 15.335L15.394 12.366L15.658 12.099C15.771 11.988 15.924 11.924 16.083 11.924C16.243 11.924 16.395 11.987 16.508 12.099L19.053 14.645L19.292 14.407L17.251 12.365L17.515 12.098C17.628 11.987 17.781 11.923 17.94 11.923C18.097 11.925 18.25 11.988 18.362 12.1Z" fill="white"/><path d="M5.637 16.4L3 13.761V7.5H10.891C11.239 7.5 11.52 7.782 11.52 8.128C11.52 8.143 11.52 8.158 11.519 8.173C11.518 8.229 11.508 8.284 11.488 8.335C11.341 8.735 10.96 9 10.535 9H10.516H8.325C8.056 9 7.837 9.219 7.837 9.488V10.759C7.837 10.958 7.917 11.148 8.058 11.288L12.144 15.375C12.417 15.646 12.417 16.086 12.146 16.357C11.875 16.628 11.434 16.628 11.163 16.357L6.818 12.011L6.578 12.25L10.462 16.134L10.198 16.4C10.085 16.511 9.932 16.575 9.773 16.575C9.613 16.575 9.461 16.512 9.349 16.4L5.875 12.925L5.637 13.165L8.606 16.134L8.342 16.4C8.229 16.511 8.076 16.575 7.917 16.575C7.757 16.575 7.605 16.512 7.492 16.4L4.947 13.854L4.708 14.092L6.749 16.134L6.486 16.4C6.373 16.511 6.22 16.575 6.061 16.575C5.902 16.575 5.749 16.512 5.637 16.4Z" fill="white"/><path d="M4.88501 3.66601H4.41801C4.40901 3.55601 4.36801 3.47201 4.29601 3.41501C4.22301 3.35701 4.12201 3.32801 3.99201 3.32801C3.87601 3.32801 3.78601 3.35101 3.72201 3.39601C3.65801 3.44201 3.62601 3.50601 3.62601 3.58801C3.62601 3.66201 3.65701 3.71501 3.71801 3.74801C3.77701 3.78001 3.92801 3.82601 4.17001 3.88601C4.42501 3.95001 4.60201 4.01401 4.70101 4.07801C4.88201 4.19701 4.97301 4.36301 4.97301 4.57501C4.97301 4.80801 4.88201 4.99101 4.69901 5.12601C4.53801 5.24401 4.32001 5.30301 4.04501 5.30301C3.73901 5.30301 3.50201 5.23301 3.33301 5.09401C3.16401 4.95401 3.07601 4.75501 3.07001 4.49801H3.55901C3.56601 4.62301 3.59801 4.71601 3.65601 4.77601C3.74601 4.87201 3.88201 4.92101 4.06401 4.92101C4.18701 4.92101 4.28401 4.89701 4.35601 4.84901C4.43701 4.79401 4.47801 4.71801 4.47801 4.62301C4.47801 4.52801 4.42101 4.45801 4.30701 4.41401C4.24401 4.38901 4.09701 4.34401 3.86401 4.28001C3.71801 4.24001 3.60501 4.20201 3.52201 4.16601C3.44001 4.13001 3.37501 4.09001 3.32601 4.04601C3.21101 3.94301 3.15301 3.80201 3.15301 3.62101C3.15301 3.40501 3.24301 3.23301 3.42201 3.10701C3.57501 3.00001 3.77401 2.94601 4.01801 2.94601C4.23201 2.94601 4.41201 2.98901 4.55601 3.07401C4.76401 3.19601 4.87401 3.39301 4.88501 3.66601Z" fill="white"/><path d="M6.29098 2.94601C6.58998 2.94601 6.84198 3.04401 7.04498 3.24101C7.26798 3.45901 7.37998 3.75301 7.37998 4.12401C7.37998 4.44401 7.29498 4.70901 7.12598 4.91901C6.91898 5.17401 6.63598 5.30201 6.27698 5.30201C5.90998 5.30201 5.62198 5.17101 5.41298 4.91001C5.24798 4.70301 5.16498 4.44201 5.16498 4.12701C5.16498 3.75401 5.27198 3.46301 5.48598 3.25501C5.69798 3.04901 5.96598 2.94601 6.29098 2.94601ZM6.26598 3.35501C6.08598 3.35501 5.93998 3.42401 5.82898 3.56101C5.71698 3.70001 5.65998 3.88601 5.65998 4.12101C5.65998 4.36401 5.71498 4.55301 5.82598 4.68901C5.87898 4.75301 5.94498 4.80401 6.02498 4.84001C6.10498 4.87501 6.18998 4.89301 6.27998 4.89301C6.45898 4.89301 6.60098 4.83001 6.70498 4.70501C6.82498 4.56101 6.88498 4.36601 6.88498 4.11901C6.88498 3.88501 6.82998 3.69901 6.71998 3.56101C6.61098 3.42401 6.45998 3.35501 6.26598 3.35501Z" fill="white"/><path d="M9.38299 3.66601H8.91499C8.90599 3.55601 8.86499 3.47201 8.79299 3.41501C8.71999 3.35701 8.61899 3.32801 8.48899 3.32801C8.37299 3.32801 8.28299 3.35101 8.21899 3.39601C8.15499 3.44201 8.12299 3.50601 8.12299 3.58801C8.12299 3.66201 8.15399 3.71501 8.21499 3.74801C8.27399 3.78101 8.42499 3.82701 8.66699 3.88601C8.92299 3.95001 9.09999 4.01401 9.19799 4.07801C9.37999 4.19701 9.46999 4.36301 9.46999 4.57501C9.46999 4.80801 9.37899 4.99101 9.19599 5.12601C9.03499 5.24401 8.81799 5.30301 8.54299 5.30301C8.23699 5.30301 7.99999 5.23301 7.83099 5.09401C7.66099 4.95401 7.57399 4.75501 7.56799 4.49801H8.05699C8.06399 4.62301 8.09599 4.71601 8.15399 4.77601C8.24399 4.87201 8.37999 4.92101 8.56199 4.92101C8.68499 4.92101 8.78199 4.89701 8.85399 4.84901C8.93499 4.79401 8.97599 4.71801 8.97599 4.62301C8.97599 4.52801 8.91899 4.45801 8.80499 4.41401C8.74199 4.38901 8.59399 4.34401 8.36099 4.28001C8.21599 4.24001 8.10199 4.20201 8.01999 4.16601C7.93799 4.13001 7.87199 4.09001 7.82299 4.04601C7.70799 3.94301 7.65099 3.80201 7.65099 3.62101C7.65099 3.40501 7.74099 3.23301 7.91999 3.10701C8.07299 3.00001 8.27099 2.94601 8.51499 2.94601C8.72899 2.94601 8.90899 2.98901 9.05299 3.07401C9.26199 3.19601 9.37099 3.39301 9.38299 3.66601Z" fill="white"/></svg>

<svg class="color-immutable" width="24" height="24" viewBox="0 0 24 24" fill="none" xmlns="http://www.w3.org/2000/svg"><g clip-path="url(#a)"><path d="M-.001 22.5v-21c0-.825.675-1.5 1.5-1.5h21C23.324 0 24 .675 24 1.5v21c0 .825-.675 1.5-1.5 1.5h-21a1.505 1.505 0 0 1-1.501-1.5Z" fill="#2D327D"/><path d="M18.362 12.1 21 14.738V21h-7.891a.629.629 0 0 1-.629-.628l.001-.045a.466.466 0 0 1 .031-.162c.147-.4.528-.666.953-.666h2.21a.49.49 0 0 0 .489-.487v-1.271a.745.745 0 0 0-.221-.529l-4.086-4.087a.693.693 0 1 1 .981-.982l4.345 4.346.239-.239-3.884-3.884.264-.267a.598.598 0 0 1 .849 0l3.474 3.475.238-.239-2.969-2.969.264-.267a.603.603 0 0 1 .85 0l2.545 2.546.239-.238-2.041-2.042.264-.267a.609.609 0 0 1 .425-.175.61.61 0 0 1 .422.177Z" fill="#fff"/><path d="M5.637 16.4 3 13.761V7.5h7.891c.348 0 .629.282.629.628l-.001.045a.466.466 0 0 1-.031.162c-.147.4-.528.665-.953.665h-2.21a.489.489 0 0 0-.488.488v1.271c0 .199.08.389.221.529l4.086 4.087a.693.693 0 1 1-.981.982l-4.345-4.346-.24.239 3.884 3.884-.264.266a.598.598 0 0 1-.849 0l-3.474-3.475-.238.24 2.969 2.969-.264.266a.603.603 0 0 1-.85 0l-2.545-2.546-.239.238 2.041 2.042-.263.266a.6.6 0 0 1-.849 0ZM4.885 3.666h-.467a.34.34 0 0 0-.122-.251.476.476 0 0 0-.304-.087.464.464 0 0 0-.27.068.223.223 0 0 0-.096.192c0 .074.031.127.092.16.059.032.21.078.452.138.255.064.432.128.531.192a.564.564 0 0 1 .272.497.647.647 0 0 1-.274.551c-.161.118-.379.177-.654.177-.306 0-.543-.07-.712-.209-.169-.14-.257-.339-.263-.596h.489c.007.125.039.218.097.278.09.096.226.145.408.145a.52.52 0 0 0 .292-.072.26.26 0 0 0 .122-.226c0-.095-.057-.165-.171-.209a5.53 5.53 0 0 0-.443-.134 2.646 2.646 0 0 1-.342-.114.732.732 0 0 1-.196-.12.54.54 0 0 1-.173-.425c0-.216.09-.388.269-.514.153-.107.352-.161.596-.161.214 0 .394.043.538.128.208.122.318.319.329.592ZM6.291 2.946c.299 0 .551.098.754.295.223.218.335.512.335.883 0 .32-.085.585-.254.795-.207.255-.49.383-.849.383-.367 0-.655-.131-.864-.392-.165-.207-.248-.468-.248-.783 0-.373.107-.664.321-.872.212-.206.48-.309.805-.309Zm-.025.409a.536.536 0 0 0-.437.206c-.112.139-.169.325-.169.56 0 .243.055.432.166.568a.546.546 0 0 0 .199.151.63.63 0 0 0 .255.053.524.524 0 0 0 .425-.188c.12-.144.18-.339.18-.586 0-.234-.055-.42-.165-.558a.548.548 0 0 0-.454-.206ZM9.383 3.666h-.468a.34.34 0 0 0-.122-.251.476.476 0 0 0-.304-.087.464.464 0 0 0-.27.068.223.223 0 0 0-.096.192c0 .074.031.127.092.16.059.033.21.079.452.138.256.064.433.128.531.192a.562.562 0 0 1 .272.497.647.647 0 0 1-.274.551c-.161.118-.378.177-.653.177-.306 0-.543-.07-.712-.209-.17-.14-.257-.339-.263-.596h.489c.007.125.039.218.097.278.09.096.226.145.408.145a.52.52 0 0 0 .292-.072.26.26 0 0 0 .122-.226c0-.095-.057-.165-.171-.209a5.606 5.606 0 0 0-.444-.134 2.623 2.623 0 0 1-.341-.114.74.74 0 0 1-.197-.12.54.54 0 0 1-.172-.425c0-.216.09-.388.269-.514.153-.107.351-.161.595-.161.214 0 .394.043.538.128.209.122.318.319.33.592Z" fill="#fff"/></g><defs><clipPath id="a"><path fill="#fff" d="M0 0h24v24H0z"/></clipPath></defs></svg>
